X: 2
T: Across The Black River
R: jig
M: 6/8
L: 1/8
K: Dmin
d3 dcd|Acd c2a|gec cde|d2c A2G|d3 dcd|cAG ceg|a3 age|1 d3 dcA:|2 d3 def||gag g2e|d2c A2G|GAc dcd|e2g def|gag g2e|d2c A2G|ded c2G|1 A3 Aef:|2 A3 A2c||


Tune 5114	Setting 17418

